X: 17652
T: Holey Ha'penny, The
R: jig
M: 6/8
K: Gmajor
dc|:B2G GFG|dBG GFG|B2G GFG|~d3 edc|
B2G GFG|dBG GFG|A2=f fef|~c3 edc:|
|:B2g gfg|~B3 d^cd|B2g gfg|de=f edc|
B2g gfg|~B3 dcB|A2=f fef|~c3 edc:|
|:dBG GFG|dBG dBG|dBG GFG|de=f edc|
dBG GFG|dBG dBG|A2=f fef|~c3 edc:|
|:Bdg ceg|Bdg ceg|Bdg ceg|~d3 edc|
Bd/e/f/g/ cd/e/f/g/|Bd/e/f/g/ cd/e/f/g/|A2=f fef|~c3 edc:|
|:dBG GDG|dBG gdB|dBG GDG|de=f edc|
dBG GDG|dBG gdB|A2=f fef|~c3 edc:|

